src/assets/duotone/Mouse1.svg

<svg width="24" height="24" viewBox="0 0 24 24"  xmlns="http://www.w3.org/2000/svg">
<path opacity="0.4" d="M12 22C17.5228 22 22 17.5228 22 12C22 6.47715 17.5228 2 12 2C6.47715 2 2 6.47715 2 12C2 17.5228 6.47715 22 12 22Z" />
<path d="M16.1502 12.8299L14.4202 13.4099C13.9402 13.5699 13.5702 13.9399 13.4102 14.4199L12.8302 16.1499C12.3402 17.6399 10.2402 17.6099 9.78018 16.1199L7.83019 9.83988C7.45019 8.58988 8.60019 7.43989 9.83019 7.81989L16.1202 9.76987C17.6102 10.2399 17.6302 12.3399 16.1502 12.8299Z" />
</svg>

<?xml version="1.0" encoding="UTF-8"?>
<svg width="24" height="24" viewBox="0 0 24 24" xmlns="http://www.w3.org/2000/svg">
 <path d="m12 22c5.5228 0 10-4.4772 10-10 0-5.5228-4.4772-10-10-10-5.5228 0-10 4.4772-10 10 0 5.5228 4.4772 10 10 10z" opacity=".4"/>
 <path d="m16.15 12.83-1.73 0.58c-0.48 0.16-0.85 0.53-1.01 1.01l-0.58 1.73c-0.49 1.49-2.59 1.46-3.05-0.03l-1.95-6.28c-0.38-1.25 0.77-2.4 2-2.02l6.29 1.95c1.49 0.47003 1.51 2.57 0.03 3.06z"/>
</svg>
